dist/img/logo/sonuc-odak.svg

<svg width="60" height="60" viewBox="0 0 60 60" fill="none" xmlns="http://www.w3.org/2000/svg">
<g clip-path="url(#clip0_52_903)">
<path d="M59.2308 30.0001C59.2308 13.8563 46.1438 0.769287 30.0001 0.769287C13.8563 0.769287 0.769287 13.8563 0.769287 30.0001C0.769287 46.1438 13.8563 59.2308 30.0001 59.2308C46.1438 59.2308 59.2308 46.1438 59.2308 30.0001Z" stroke="#3271B2" stroke-width="2"/>
<path d="M31.5155 41.3999V29.2153H29.877V41.3999C28.977 41.7923 28.4693 42.7615 28.6693 43.723C28.8693 44.6923 29.7155 45.3846 30.7001 45.3846C31.6847 45.3846 32.5308 44.6923 32.7308 43.723C32.9308 42.7615 32.4231 41.7923 31.5155 41.3999ZM30.7001 43.7384C30.4616 43.7384 30.2616 43.5461 30.2616 43.3076C30.2616 43.0692 30.4616 42.8769 30.7001 42.8769C30.9385 42.8769 31.1308 43.0692 31.1308 43.3076C31.1308 43.5461 30.9385 43.7384 30.7001 43.7384Z" fill="#E0027A"/>
<path d="M38.9999 38.0615C38.1845 38.0615 37.4384 38.5461 37.1076 39.2923H35.4461V30.7H33.8076V40.9307H37.0922C37.4922 41.8923 38.5384 42.4076 39.5384 42.1384C40.5461 41.8692 41.1922 40.8923 41.0615 39.8615C40.923 38.8307 40.0461 38.0615 38.9999 38.0615ZM38.9999 40.5692C38.7615 40.5692 38.5692 40.3769 38.5692 40.1384C38.5692 39.9 38.7615 39.7 38.9999 39.7C39.2384 39.7 39.4384 39.9 39.4384 40.1384C39.4384 40.3769 39.2384 40.5692 38.9999 40.5692Z" fill="#00AEEF"/>
<path d="M25.9461 39.2923H24.2845C23.8845 38.3923 22.9076 37.9 21.9461 38.1076C20.9922 38.323 20.3076 39.1769 20.323 40.1615C20.3307 41.1461 21.0307 41.9846 21.9999 42.1692C22.9692 42.3615 23.9307 41.8384 24.3076 40.9307H27.5845V30.7H25.9461V39.2923ZM22.3922 40.5692C22.1538 40.5692 21.9615 40.3769 21.9615 40.1384C21.9615 39.9 22.1538 39.7 22.3922 39.7C22.6307 39.7 22.823 39.9 22.823 40.1384C22.823 40.3769 22.6307 40.5692 22.3922 40.5692Z" fill="#00AEEF"/>
<path d="M41.4308 24.6769C41.4308 22.3385 40.3154 20.0923 38.4308 18.6923C36.5462 17.3 34.1077 16.8692 31.8616 17.5462C29.6847 14.7615 25.877 13.8385 22.6539 15.3C19.4385 16.7692 17.6462 20.2462 18.3308 23.7077C15.977 25.1769 14.8308 27.9923 15.5001 30.6923C16.1693 33.3846 18.4924 35.3462 21.2693 35.5539L23.2693 35.5615V33.9385L21.3616 33.9308C18.8847 33.7308 16.9462 31.6385 16.9462 29.1462C16.9385 27.3154 17.9847 25.6462 19.6308 24.8385L20.2462 24.5385L20.0539 23.8846C19.2308 21.0385 20.6231 18.0154 23.3308 16.7769C26.0385 15.5462 29.2462 16.4692 30.8693 18.9539L31.2308 19.5154L31.8539 19.2692C33.6385 18.5615 35.6616 18.7769 37.2539 19.8539C38.8462 20.9308 39.8001 22.7154 39.8001 24.6385C39.8001 24.8692 39.7847 25.1 39.7539 25.3308L39.6462 26.2385H40.5693C42.6616 26.2462 44.4001 27.9154 44.4462 30C44.5001 32.0923 42.877 33.8385 40.777 33.9462L38.3693 33.9385V35.5692H40.8001C43.6154 35.4385 45.9154 33.2 46.0693 30.3923C46.2231 27.5846 44.2231 25.1154 41.4308 24.6769Z" fill="#00AEEF"/>
</g>
<defs>
<clipPath id="clip0_52_903">
<rect width="60" height="60" fill="white"/>
</clipPath>
</defs>
</svg>

<svg width="60" height="60" viewBox="0 0 60 60" fill="none" xmlns="http://www.w3.org/2000/svg"><g clip-path="url(#clip0_52_903)"><path d="M59.23 30C59.23 13.856 46.145.77 30 .77S.77 13.855.77 30 13.855 59.23 30 59.23 59.23 46.145 59.23 30z" stroke="#3271B2" stroke-width="2"/><path d="M31.515 41.4V29.215h-1.638V41.4a2.077 2.077 0 00-1.208 2.323c.2.97 1.046 1.662 2.031 1.662.985 0 1.83-.693 2.03-1.662.2-.962-.307-1.93-1.214-2.323zm-.815 2.338a.437.437 0 01-.438-.43c0-.239.2-.431.438-.431a.43.43 0 110 .861z" fill="#E0027A"/><path d="M39 38.062c-.816 0-1.562.484-1.892 1.23h-1.662V30.7h-1.638v10.23h3.284a2.069 2.069 0 002.446 1.208 2.083 2.083 0 001.524-2.276 2.075 2.075 0 00-2.062-1.8zm0 2.507a.43.43 0 01-.43-.43c0-.239.191-.439.43-.439.238 0 .438.2.438.438 0 .239-.2.431-.438.431zm-13.054-1.277h-1.662a2.077 2.077 0 00-2.338-1.184 2.078 2.078 0 00-1.623 2.053A2.058 2.058 0 0022 42.17c.97.193 1.93-.33 2.308-1.238h3.276V30.7h-1.638v8.592zm-3.554 1.277a.43.43 0 01-.43-.43c0-.239.192-.439.43-.439.239 0 .431.2.431.438a.43.43 0 01-.43.431z" fill="#00AEEF"/><path d="M41.43 24.677a7.49 7.49 0 00-3-5.985 7.45 7.45 0 00-6.568-1.146c-2.177-2.784-5.985-3.707-9.208-2.246a7.624 7.624 0 00-4.323 8.408 6.412 6.412 0 00-2.83 6.984 6.434 6.434 0 005.768 4.862l2 .008v-1.623l-1.907-.008a4.82 4.82 0 01-4.416-4.785 4.78 4.78 0 012.685-4.308l.615-.3-.192-.653a5.99 5.99 0 013.277-7.108c2.707-1.23 5.915-.308 7.538 2.177l.362.561.623-.246a5.815 5.815 0 015.4.585 5.768 5.768 0 012.546 4.785 5.2 5.2 0 01-.046.692l-.108.907h.923c2.093.008 3.831 1.677 3.877 3.762a3.854 3.854 0 01-3.669 3.946l-2.408-.008v1.631H40.8c2.815-.13 5.115-2.369 5.27-5.177a5.486 5.486 0 00-4.64-5.715z" fill="#00AEEF"/></g><defs><clipPath id="clip0_52_903"><rect width="60" height="60" fill="#fff"/></clipPath></defs></svg>
